X:1
T:Title
L:1/8
M:4/4
I:linebreak $
K:C
V:1 treble nm="Voice"
V:1
"C" g2 e2"F" a2 g2 |"G" gage"C" c2 dc |"G" B2 G2 A2 B2 |"C" cBcd e2 ef |"G" g2 e2"F" a2 g2 | %5
"G" gage"C" c2 dc |"G" B2 G2 A2 B2 |1"C" c4 c2 ef :|2"C" c6 GF |:"C" E2 C2 D2 E2 |"F" FEFG A2 dc | %11
"G" B2 G2 A2 B2 |"C" cBcd e2 GF | E2 C2 D2 E2 |"F" FEFG A2 dc |"G" B2 G2 A2 B2 |1"C" c4 c2 GF :|2 %17
"C" c4 c2 ef |] %18
